assets/images/icon.svg

<svg fill="none" height="493" viewBox="0 0 391 493" width="391" xmlns="http://www.w3.org/2000/svg"><path d="m250.141 492.707c-112.02 0-213.8501-74.621-242.12006-177.43-19.99604-72.742-1.87109-160.49 46.18396-223.5505 48.3281-63.402 121.9701-96.08995 205.9101-91.257951 4.816.28125 8.914 3.617201 10.164 8.269501 1.262 4.66015-.609 9.59765-4.633 12.25395-81.984 54.2071-119.54 154.33-93.457 249.14 26.066 94.824 109.54 161.66 207.7 166.32 5.027.242 9.285 3.813 10.395 8.731 1.102 4.91-1.203 9.96-5.644 12.336-43.66 23.348-88.918 35.18-134.5 35.18z" fill="#fff"/></svg>

<svg width="391" height="493" viewBox="0 0 391 493" fill="none" xmlns="http://www.w3.org/2000/svg">
<path d="M250.141 492.707C138.121 492.707 36.2909 418.086 8.02094 315.277C-11.9751 242.535 6.14985 154.787 54.2049 91.7265C102.533 28.3245 176.175 -4.36345 260.115 0.468549C264.931 0.749799 269.029 4.08575 270.279 8.73805C271.541 13.3982 269.67 18.3357 265.646 20.992C183.662 75.1991 146.106 175.322 172.189 270.132C198.255 364.956 281.729 431.792 379.889 436.452C384.916 436.694 389.174 440.265 390.284 445.183C391.386 450.093 389.081 455.143 384.64 457.519C340.98 480.867 295.722 492.699 250.14 492.699L250.141 492.707Z" fill="white"/>
</svg>
